X: 10243
T: Dobbin's Flowering Dale
R: polka
M: 2/4
K: Eminor
gf|e2 ed B2 AG|A2 B2 D3 E|G2 A2 BA Bd|e5 gf|
e2 ed B2 AG|A2 B2 D3 E|G2 AG E3 E|E5 B2||
d3 B d2 ef|g3 e f2 gf|e3 d BA Bd|e5 gf|
e3 d B2 AG|A2 B2 D3 E2|G2 AG E3 E|E5||

